packages/core/src/svgs/sylo.svg

<svg width="24" height="24" viewBox="0 0 24 24" fill="none" xmlns="http://www.w3.org/2000/svg">
<g clip-path="url(#clip0_31_19552)">
<path d="M0 0H24V24H0V0Z" fill="#0C1D34"/>
<path d="M20.6336 11.9379C20.6337 12.2838 20.5656 12.6262 20.4332 12.9458C20.3009 13.2653 20.1069 13.5557 19.8624 13.8002C19.6178 14.0448 19.3275 14.2388 19.0079 14.3711C18.6884 14.5034 18.3459 14.5715 18 14.5715C17.6542 14.5715 17.3117 14.5034 16.9921 14.3711C16.6726 14.2388 16.3822 14.0448 16.1377 13.8002C15.8931 13.5557 15.6991 13.2653 15.5668 12.9458C15.4345 12.6262 15.3664 12.2838 15.3665 11.9379C15.3665 11.5921 15.4347 11.2497 15.5671 10.9303C15.6994 10.6108 15.8934 10.3206 16.138 10.0761C16.3825 9.83163 16.6728 9.63772 16.9923 9.50545C17.3118 9.37317 17.6542 9.30512 18 9.30518C18.3459 9.30512 18.6884 9.3732 19.0079 9.50553C19.3275 9.63786 19.6178 9.83184 19.8624 10.0764C20.1069 10.321 20.3009 10.6113 20.4332 10.9309C20.5656 11.2504 20.6337 11.5929 20.6336 11.9387V11.9379ZM19.3453 11.9379C19.3453 11.1965 18.7415 10.5926 17.9996 10.5926C17.6429 10.5931 17.3009 10.735 17.0487 10.9873C16.7965 11.2396 16.6547 11.5816 16.6543 11.9383C16.6543 12.6797 17.2586 13.2836 18 13.2836C18.7415 13.2836 19.3453 12.6797 19.3453 11.9379Z" fill="#E5661F"/>
<path d="M5.5517 14.5715C6.61627 14.5715 7.43655 14.1039 7.43655 13.0081V12.9909C7.43655 12.0871 6.65012 11.6894 5.95798 11.4566C5.42827 11.2758 4.95727 11.1416 4.95727 10.8678V10.8506C4.95727 10.6578 5.13169 10.5065 5.47498 10.5065C5.76641 10.5065 6.14441 10.6291 6.53998 10.8215C6.61541 10.8626 6.70841 10.8858 6.79584 10.8858H6.80741C7.10998 10.8858 7.35427 10.6351 7.35427 10.3321C7.35427 10.1049 7.22655 9.90093 7.02298 9.8075C6.55147 9.56369 6.02934 9.43393 5.49855 9.42864C4.50427 9.42864 3.69512 9.99393 3.69512 10.9964V11.0135C3.69512 11.9752 4.48027 12.2958 5.16084 12.4938C5.70212 12.6566 6.16841 12.8332 6.16841 13.1366V13.1538C6.16841 13.3754 5.98841 13.5211 5.58127 13.5211C5.18569 13.5211 4.72027 13.3754 4.24884 13.0779C4.1654 13.0311 4.0711 13.007 3.97541 13.0081H3.95827C3.81481 13.0119 3.67866 13.0722 3.57946 13.1759C3.48025 13.2796 3.42602 13.4183 3.42855 13.5618C3.42855 13.7598 3.52755 13.9406 3.69598 14.0396C4.24284 14.4065 4.8887 14.5715 5.5517 14.5715ZM9.16412 15.8572C10.002 15.8572 10.4147 15.4685 10.8278 14.4665L12.5323 10.4122C12.5734 10.3076 12.5906 10.1911 12.5966 10.0801V10.0745C12.5932 9.90129 12.5217 9.73638 12.3976 9.6155C12.2735 9.49461 12.1068 9.42748 11.9336 9.42864C11.5787 9.42864 11.3751 9.6785 11.2641 9.9755L10.2463 12.7591L9.16069 9.95836C9.04455 9.62578 8.84141 9.42864 8.49212 9.42864C8.10212 9.42864 7.79955 9.70764 7.79955 10.1041C7.81112 10.2146 7.83427 10.3196 7.87541 10.4246L9.57684 14.2509L9.53055 14.3615C9.40284 14.6122 9.28627 14.6589 9.03641 14.6589C8.93141 14.6589 8.83284 14.6414 8.73984 14.6066C8.66448 14.5833 8.58602 14.5714 8.50712 14.5715H8.50155C8.19298 14.5775 7.9487 14.8338 7.9547 15.1428C7.9547 15.4865 8.19298 15.6498 8.39655 15.7256C8.64084 15.8131 8.90269 15.8688 9.16412 15.8572ZM13.2857 13.8644C13.2857 14.2492 13.5446 14.5711 13.9286 14.5711C14.3126 14.5711 14.5714 14.2496 14.5714 13.8644V8.4335C14.5714 8.04864 14.313 7.71436 13.9286 7.71436C13.5446 7.71436 13.2857 8.04864 13.2857 8.4335V13.8644Z" fill="white"/>
</g>
<defs>
<clipPath id="clip0_31_19552">
<rect width="24" height="24" fill="white"/>
</clipPath>
</defs>
</svg>

<svg xmlns="http://www.w3.org/2000/svg" width="24" height="24" fill="none" viewBox="0 0 24 24"><g clip-path="url(#a)"><path fill="#0C1D34" d="M0 0h24v24H0z"/><path fill="#E5661F" d="M20.634 11.938A2.63 2.63 0 0 1 18 14.57a2.635 2.635 0 0 1-2.633-2.633 2.63 2.63 0 0 1 3.64-2.432 2.63 2.63 0 0 1 1.627 2.433zm-1.289 0c0-.742-.604-1.345-1.345-1.345a1.347 1.347 0 0 0-1.346 1.345c0 .742.605 1.346 1.346 1.346s1.345-.604 1.345-1.346"/><path fill="#fff" d="M5.552 14.572c1.064 0 1.885-.468 1.885-1.564v-.017c0-.904-.787-1.302-1.479-1.534-.53-.181-1-.315-1-.59v-.016c0-.193.174-.344.517-.344.291 0 .67.122 1.065.315a.55.55 0 0 0 .256.064h.011c.303 0 .547-.25.547-.554a.57.57 0 0 0-.331-.525 3.4 3.4 0 0 0-1.524-.378c-.995 0-1.804.565-1.804 1.567v.018c0 .961.785 1.282 1.466 1.48.541.163 1.007.34 1.007.643v.017c0 .221-.18.367-.587.367-.395 0-.86-.146-1.332-.443a.55.55 0 0 0-.274-.07h-.017a.544.544 0 0 0-.53.554c0 .198.1.379.268.478.547.367 1.193.532 1.856.532m3.612 1.285c.838 0 1.25-.388 1.664-1.39l1.704-4.055c.041-.104.059-.22.065-.332v-.005a.66.66 0 0 0-.663-.646c-.355 0-.559.25-.67.547l-1.018 2.783-1.085-2.8c-.116-.333-.32-.53-.669-.53-.39 0-.692.279-.692.675q.015.164.075.32l1.702 3.827-.046.11c-.128.251-.245.298-.495.298a.8.8 0 0 1-.296-.052.8.8 0 0 0-.233-.035h-.005a.56.56 0 0 0-.547.57c0 .345.238.508.442.584.244.087.506.143.767.131m4.122-1.993c0 .385.259.707.643.707s.642-.321.642-.707v-5.43c0-.385-.258-.72-.642-.72s-.643.335-.643.72z"/></g><defs><clipPath id="a"><path fill="#fff" d="M0 0h24v24H0z"/></clipPath></defs></svg>
